!!!OTL: Der Reiter und sein Liebchen (53b), S. 168
!!!id: T0193
**kern
*clefG2
*k[f#]
*G:
{4d
=1
4.g
8f#
4b
=2
4.a
8g
4a
=3
4.b
8cc
4b
=4
4a}
4r
=5
{4g
=6
8g
8g
4b
4dd
=7
4.dd
8cc
4b
=8
8a
8a
4cc
4ee
=9
4.ee
8dd}
=10
{4g
=11
8g
8g
4b
4dd
=12
4.dd
8cc}
=13
{4b
=14
4a
4g
4a
=15
4g}
4r
==
*-
!!!minrhy: 8
!!!meters: 3/4 ]  ZZ[4
!!!cut: Der Reiter und sein Liebchen (53b), S. 168
!!!reg: Luxemburg
!!!trd: Singendes Volk, Esch-Alzette 1937 posth.
!!!rhy1: X_  X_.XX_  X_.XX_  X_.XX_  X_0_
!!!rhy2: X_  XXX_X_  X_.XX_  XXX_X_  X_.X
!!!key: T0193  08  G 3/4 ]  ZZ[4
!!!mod: HEPTATONIK IONISCH]  AMBITUS[9
!!!kad: 2541
!!!akz: 1232_1526_15_21_
!!!fot: 'a__b__bv_c__
!!!for: 'a__b__bw_c__
!!!fok: 'Ma_~a_/__\__
!! PHRAS[AUFTAKTIG]
!!!fkt: Liebeslieder
!!!bem1: Junglinster, fff Wachtmeister-Kaiser aus K&uuml;ntzig, 25.12.1932;
!!!bem2: (53c), Diekirch, ? Welter, 26.3.1933
!! THILL, Mathias:
!! PR[33] 2K[0] 2G[20] 3K[9] 3G[7] 4A[2] 4Ü[0] 5A[0] 6K[0] 6G[0]
!! 7K[0] 7G[0] 8A[0] MEHR[0] SI[38] ABS[45] SR[20] SP[18]
!! ST[12] 2k[0] 2g[11] 3k[4] 3g[9] 4d[4] 4ü[0] 5d[0] 6k[0] 6g[0]
!! 7k[0] 7g[0] 8d[0] mehr[0] si[29] dm[+9] sr[11] sp[18]
!! 1F[4] 2F[43] 3F[47] 4F[2] LF[0] 2P[4] 3P[0] 4P[0] TRI[0] DF[5] AB[47]
!! TF[0] U3K[0] U3[0] U4[0] U4Ü[0] U5[2] U6K[0] U6[0] U7K[0] U7[0]
!! N1[9] N2K[0] N2[9] N3K[0] N3[17] N4[4] N4Ü[0] N5[33] N6K[0] N6[26]
!!!n7k: 0] N7[0] O1[0] O2K[0] O2[0] O3K[0] O3[0] HÖ[0
!!!RNB: symbol: &uuml;  = u umlaut (UTF-8: Ã¼)
